assets/Japanese monthly amount button/Flat/japanese_monthly_amount_button_flat.svg

<svg width="32" height="32" viewBox="0 0 32 32" fill="none" xmlns="http://www.w3.org/2000/svg">
<path d="M2 6C2 3.79086 3.79086 2 6 2H26C28.2091 2 30 3.79086 30 6V26C30 28.2091 28.2091 30 26 30H6C3.79086 30 2 28.2091 2 26V6Z" fill="#FF822D"/>
<path d="M10 7C10 6.44772 10.4477 6 11 6H22.9688C23.5211 6 23.9688 6.44772 23.9688 7V21.9688C23.9688 23.6256 22.6256 24.9688 20.9688 24.9688H19.0625C18.5102 24.9688 18.0625 24.521 18.0625 23.9688C18.0625 23.4165 18.5102 22.9688 19.0625 22.9688H20.9688C21.5211 22.9688 21.9688 22.521 21.9688 21.9688V18.125C21.9688 18.056 21.9128 18 21.8438 18H11.6359C11.5756 18 11.5239 18.0431 11.5127 18.1023C11.2923 19.2641 11.0088 20.2218 10.6869 21.0301C10.0164 22.7139 9.18726 23.7106 8.57045 24.452C8.47824 24.5629 8.39071 24.6681 8.30923 24.769C7.9622 25.1986 7.33259 25.2656 6.90295 24.9186C6.4733 24.5715 6.40632 23.9419 6.75334 23.5123C6.84812 23.3949 6.94419 23.279 7.04107 23.1621C7.64533 22.4327 8.28123 21.6652 8.8288 20.2902C9.46991 18.6803 10 16.1876 10 12V7ZM11.8279 15.8623C11.8207 15.936 11.8785 16 11.9526 16H21.8438C21.9128 16 21.9688 15.944 21.9688 15.875V13.125C21.9688 13.056 21.9128 13 21.8438 13H12.1124C12.0444 13 11.9888 13.0545 11.9873 13.1225C11.9639 14.1237 11.9091 15.0333 11.8279 15.8623ZM21.8438 8H12.125C12.056 8 12 8.05596 12 8.125V10.875C12 10.944 12.056 11 12.125 11H21.8438C21.9128 11 21.9688 10.944 21.9688 10.875V8.125C21.9688 8.05596 21.9128 8 21.8438 8Z" fill="white"/>
</svg>

<svg xmlns="http://www.w3.org/2000/svg" width="32" height="32" fill="none"><path fill="#FF822D" d="M2 6a4 4 0 0 1 4-4h20a4 4 0 0 1 4 4v20a4 4 0 0 1-4 4H6a4 4 0 0 1-4-4V6Z"/><path fill="#fff" d="M10 7a1 1 0 0 1 1-1h11.969a1 1 0 0 1 1 1v14.969a3 3 0 0 1-3 3h-1.907a1 1 0 0 1 0-2h1.907a1 1 0 0 0 1-1v-3.844a.125.125 0 0 0-.125-.125H11.636a.126.126 0 0 0-.123.102c-.22 1.162-.504 2.12-.826 2.928-.67 1.684-1.5 2.68-2.117 3.422-.092.11-.18.216-.26.317a1 1 0 0 1-1.557-1.257l.288-.35c.604-.73 1.24-1.497 1.788-2.872C9.469 18.68 10 16.188 10 12V7Zm1.828 8.862a.125.125 0 0 0 .125.138h9.89a.125.125 0 0 0 .126-.125v-2.75a.125.125 0 0 0-.125-.125h-9.732a.125.125 0 0 0-.125.123 37.017 37.017 0 0 1-.16 2.74ZM21.844 8h-9.719a.125.125 0 0 0-.125.125v2.75c0 .069.056.125.125.125h9.719a.125.125 0 0 0 .125-.125v-2.75A.125.125 0 0 0 21.844 8Z"/></svg>
